X:177
T:Willy's Rare & Willy's Fair. THO5.177
M:6/8
L:1/8
B:Thompson's Complete Collection of 200 Favourite Dances Vol.5
F:https://www.libraryofdance.org/manuals/1780c-Thompson-Compleat-5.pdf
Z:vmp. Peter Dunk 2024
Q:3/8=100
K:D
A|(A<F)d (d<A)f|(f<d)a (f<d)A|B>cd Adf|(f3-e2)A|
(A<F)d (d<A)f|(f<d)a (f<d)A|(B>c)d (Ad)f|e3 d2:|
|:(ec)A d2f|(ec)A d2f|(fd)B (BF)d|(c3 B2) (B/c/)|
(d<A)F (A<F)D|E>FE e2f|(g<e)f (ge)d|c2 d e3|
(d>e)f d2A|(d>e)f d2A|(B>c)d (Ad)f|(f3 e2)f/g/|
(a<f)d (f<d)A|(B>c)d A2A|(A>B)A (Ad)f|e3 d2:|
W:
W:The 1st Gent foot it to the 2nd Lady & turn ./.
W:The 1st Lady foot it  to the 2nd Gent & turn ./:
W:Hey contrary sides then on your own sides :/.
W:cross over hads 4 at bottom, Right and Left at top :/:

